icons/shopping-cart-17.svg

<svg width="16" height="17" viewBox="0 0 16 17" fill="none" xmlns="http://www.w3.org/2000/svg">
<path fill-rule="evenodd" clip-rule="evenodd" d="M2.5 2.41638C2.22386 2.41638 2 2.64024 2 2.91638C2 3.19252 2.22386 3.41638 2.5 3.41638H4.09016L4.50598 5.49392C4.50819 5.50815 4.51101 5.52218 4.51439 5.53598L5.34966 9.70921C5.41832 10.0543 5.60612 10.3643 5.88024 10.585C6.1531 10.8047 6.49419 10.9219 6.84432 10.9164H11.6957C12.0458 10.9219 12.3869 10.8047 12.6598 10.585C12.934 10.3643 13.1218 10.0541 13.1904 9.70879L13.9911 5.51004C14.0191 5.36367 13.9802 5.21247 13.8852 5.09766C13.7903 4.98284 13.649 4.91638 13.5 4.91638H5.41021L4.99028 2.81825C4.9435 2.58457 4.73831 2.41638 4.5 2.41638H2.5ZM6.33042 9.51397L5.61036 5.91638H12.8956L12.2093 9.51558C12.1861 9.63003 12.1237 9.7328 12.0327 9.80605C11.9413 9.87963 11.8269 9.91872 11.7096 9.91647L11.7 9.91638H6.84L6.83042 9.91647C6.71309 9.91872 6.59871 9.87963 6.5073 9.80605C6.4159 9.73246 6.35328 9.62907 6.33042 9.51397Z" fill="#272431"/>
<path d="M5.5 12.9164C5.5 12.3641 5.94772 11.9164 6.5 11.9164C7.05228 11.9164 7.5 12.3641 7.5 12.9164C7.5 13.4687 7.05228 13.9164 6.5 13.9164C5.94772 13.9164 5.5 13.4687 5.5 12.9164Z" fill="#272431"/>
<path d="M11 12.9164C11 12.3641 11.4477 11.9164 12 11.9164C12.5523 11.9164 13 12.3641 13 12.9164C13 13.4687 12.5523 13.9164 12 13.9164C11.4477 13.9164 11 13.4687 11 12.9164Z" fill="#272431"/>
</svg>

<svg xmlns="http://www.w3.org/2000/svg" width="16" height="17" viewBox="0 0 16 17"><path fill-rule="evenodd" d="M2.5 2.416a.5.5 0 000 1h1.59l.416 2.078a.498.498 0 00.008.042l.836 4.173a1.5 1.5 0 001.494 1.207h4.852A1.5 1.5 0 0013.19 9.71l.801-4.199a.5.5 0 00-.491-.594H5.41l-.42-2.098a.5.5 0 00-.49-.402h-2zm3.83 7.098l-.72-3.598h7.286l-.687 3.6a.5.5 0 01-.5.4H6.83a.5.5 0 01-.5-.402z"/><path d="M5.5 12.916a1 1 0 112 0 1 1 0 01-2 0zm5.5 0a1 1 0 112 0 1 1 0 01-2 0z"/></svg>
